!!!SOCIAL_FUNCTION:	initiation songs of the first and second degrees
!!!PDT:	1909
!!!OTL: No_11_First_Initiation_Song.krn
!!!REG: Great_Lakes
!!!LANG: Non-Tone
!!!LING_GROUP: Algonquin
**kern	**kern
*staff2	*staff1
=1-	=1-
*clefF4	*clefF4
*k[b-e-a-d-]	*k[b-e-a-d-]
*M4/4	*M4/4
8GG/L	4c\
8GG/	.
8GG/	4c\
8GG/J	.
8GG/L	8c\L
8GG/	8c\J
8GG/	4c\
8GG/J	.
=2	=2
1r	2c\
.	2c\
=3	=3
1r	4c\
.	4c\
.	4c\
.	4B-\
=4	=4
1r	4c\
.	4c\
.	8c\L
.	8c\J
.	4B-\
=5	=5
1r	2B-\
.	2B-\
=6	=6
1r	8B-\L
.	8A-\J
.	4A-\
.	4A-\
.	4F\
=7	=7
1r	4c\
.	4c\
.	8c\L
.	8c\J
.	4B-\
=8	=8
1r	2B-\
.	2B-\
=9	=9
1r	4A-\
.	4A-\
.	4A-\
.	4F\
=10	=10
1r	4A-\
.	4B-\
.	8A-\L
.	8A-\J
.	4F\
=11	=11
1r	2F\
.	2F\
=12	=12
1r	4F\
.	4c\
.	4c\
.	4c\
==	==
*-	*-
